modules/hawcons-filled/icons/icon-90-document-file-rb.svg

<?xml version="1.0" encoding="UTF-8" standalone="no"?>
<svg width="32px" height="32px" viewBox="0 0 32 32" version="1.1" xmlns="http://www.w3.org/2000/svg" xmlns:xlink="http://www.w3.org/1999/xlink" xmlns:sketch="http://www.bohemiancoding.com/sketch/ns">
    <!-- Generator: Sketch 3.0.3 (7891) - http://www.bohemiancoding.com/sketch -->
    <title>icon 90 document file rb</title>
    <desc>Created with Sketch.</desc>
    <defs></defs>
    <g id="Page-1" stroke="none" stroke-width="1" fill="none" fill-rule="evenodd" sketch:type="MSPage">
        <g id="icon-90-document-file-rb" sketch:type="MSArtboardGroup" fill="#929292">
            <path d="M21,26 L21,28.0025781 C21,29.1090746 20.1057238,30 19.0025781,30 L3.99742191,30 C2.89092539,30 2,29.1012878 2,27.9926701 L2,5.00732994 C2,3.89833832 2.8992496,3 4.0085302,3 L14,3 L14,9.00189865 C14,10.1132936 14.8980806,11 16.0059191,11 L21,11 L21,13 L11.0068483,13 C9.34621185,13 8,14.3422643 8,15.9987856 L8,23.0012144 C8,24.6573979 9.33599155,26 11.0068483,26 L21,26 L21,26 Z M15,3 L15,8.99707067 C15,9.55097324 15.4509752,10 15.990778,10 L21,10 L15,3 L15,3 Z M10.9945615,14 C9.89299558,14 9,14.9001762 9,15.992017 L9,23.007983 C9,24.1081436 9.90234375,25 10.9945615,25 L28.0054385,25 C29.1070044,25 30,24.0998238 30,23.007983 L30,15.992017 C30,14.8918564 29.0976562,14 28.0054385,14 L10.9945615,14 L10.9945615,14 Z M15.7999878,20 L15,20 L15,23 L14,23 L14,18 L14,16 L16.9951185,16 C18.1061002,16 19,16.8954305 19,18 C19,19.1106358 18.1050202,19.9973904 16.9999986,19.9999943 L19,23 L17.7999878,23 L15.7999878,20 L15.7999878,20 Z M15,17 L15,19 L17.0010434,19 C17.5527519,19 18,18.5561352 18,18 C18,17.4477153 17.5573397,17 17.0010434,17 L15,17 L15,17 Z M20,19.75 L20,16 L22.9951185,16 C24.1061002,16 25,16.8954305 25,18 C25,18.6003203 24.7385216,19.1352311 24.3237293,19.5004635 C24.7385553,19.8669242 25,20.4029055 25,21 C25,22.1122704 24.102384,23 22.9951185,23 L20,23 L20,19.75 L20,19.75 Z M21,17 L21,19 L23.0010434,19 C23.5527519,19 24,18.5561352 24,18 C24,17.4477153 23.5573397,17 23.0010434,17 L21,17 L21,17 Z M21,20 L21,22 L23.0010434,22 C23.5527519,22 24,21.5561352 24,21 C24,20.4477153 23.5573397,20 23.0010434,20 L21,20 L21,20 Z" id="document-file-rb" sketch:type="MSShapeGroup"></path>
        </g>
    </g>
</svg>

<svg width="32" height="32" xmlns="http://www.w3.org/2000/svg"><path d="M21 26v2.003A1.995 1.995 0 0 1 19.003 30H3.997A2 2 0 0 1 2 27.993V5.007C2 3.898 2.9 3 4.009 3H14v6.002c0 1.111.898 1.998 2.006 1.998H21v2h-9.993A3.003 3.003 0 0 0 8 15.999V23A2.996 2.996 0 0 0 11.007 26H21zM15 3v5.997c0 .554.451 1.003.99 1.003H21l-6-7zm-4.005 11C9.893 14 9 14.9 9 15.992v7.016A2 2 0 0 0 10.995 25h17.01C29.107 25 30 24.1 30 23.008v-7.016A2 2 0 0 0 28.005 14h-17.01zm4.805 6H15v3h-1v-7h2.995A2 2 0 1 1 17 20l2 3h-1.2l-2-3zm-.8-3v2h2.001A.997.997 0 0 0 18 18c0-.552-.443-1-.999-1H15zm5 2.75V16h2.995a2 2 0 0 1 1.329 3.5c.415.367.676.903.676 1.5 0 1.112-.898 2-2.005 2H20v-3.25zM21 17v2h2.001A.997.997 0 0 0 24 18c0-.552-.443-1-.999-1H21zm0 3v2h2.001A.997.997 0 0 0 24 21c0-.552-.443-1-.999-1H21z" fill="#929292" fill-rule="evenodd"/></svg>
